icons/zap.svg

<svg width="24" height="24" viewBox="0 0 24 24" fill="none" xmlns="http://www.w3.org/2000/svg">
<path d="M12.8415 2.63567C12.9079 2.07678 12.243 1.77234 11.9021 2.20456L11.7454 2.50916C9.62006 6.64067 6.69072 10.3177 3.12503 13.33C2.83479 13.6966 3.08228 14.2544 3.53452 14.2544H11.3959C11.7165 14.2544 11.9651 14.5511 11.9246 14.8877L11.1596 21.3654C11.0921 21.9232 11.7559 22.2276 12.0979 21.7954L12.2546 21.4908C14.3799 17.3593 17.3093 13.6822 20.875 10.67C21.1652 10.3033 20.9177 9.74557 20.4655 9.74557H12.6041C12.2835 9.74557 12.0349 9.4489 12.0754 9.11224L12.8415 2.63567Z" stroke="black" stroke-width="2" stroke-linecap="round" stroke-linejoin="round"/>
</svg>

<svg xmlns="http://www.w3.org/2000/svg" width="24" height="24" viewBox="0 0 24 24" fill="none" stroke="currentColor" stroke-width="2" stroke-linecap="round" stroke-linejoin="round">
<path d="M12.842 2.636c.066-.56-.599-.864-.94-.431l-.157.304a35.3 35.3 0 0 1-8.62 10.821c-.29.367-.043.924.41.924h7.86c.322 0 .57.297.53.634l-.765 6.477c-.068.558.596.863.938.43l.157-.304a35.3 35.3 0 0 1 8.62-10.821c.29-.367.043-.924-.41-.924h-7.86c-.322 0-.57-.297-.53-.634z"/>
</svg>
